actions/symbolic/image-sharpen-symbolic.svg

<svg viewBox="0 0 16 16" xmlns="http://www.w3.org/2000/svg"><path d="m8 3-.6506024 1.1111111-4.626506 7.7294679-.7228916 1.159421h1.3734939 9.2530121 1.373494l-.722891-1.159421-4.6265066-7.7294679zm0 2.9710145 3.277108 5.4830915h-6.5542165z" fill="#bebebe"/></svg>

<?xml version="1.0" encoding="UTF-8" standalone="no"?>
<svg
   xmlns:dc="http://purl.org/dc/elements/1.1/"
   xmlns:cc="http://creativecommons.org/ns#"
   xmlns:rdf="http://www.w3.org/1999/02/22-rdf-syntax-ns#"
   xmlns:svg="http://www.w3.org/2000/svg"
   xmlns="http://www.w3.org/2000/svg"
   xmlns:sodipodi="http://sodipodi.sourceforge.net/DTD/sodipodi-0.dtd"
   xmlns:inkscape="http://www.inkscape.org/namespaces/inkscape"
   viewBox="0 0 16 16"
   id="svg3489"
   version="1.1"
   inkscape:version="0.91 r13725"
   sodipodi:docname="image-sharpen-symbolic.svg">
  <metadata
     id="metadata3497">
    <rdf:RDF>
      <cc:Work
         rdf:about="">
        <dc:format>image/svg+xml</dc:format>
        <dc:type
           rdf:resource="http://purl.org/dc/dcmitype/StillImage" />
      </cc:Work>
    </rdf:RDF>
  </metadata>
  <sodipodi:namedview
     pagecolor="#ffffff"
     bordercolor="#666666"
     borderopacity="1"
     objecttolerance="10"
     gridtolerance="10"
     guidetolerance="10"
     inkscape:pageopacity="0"
     inkscape:pageshadow="2"
     inkscape:window-width="640"
     inkscape:window-height="480"
     id="namedview3495"
     showgrid="false"
     inkscape:zoom="39.8125"
     inkscape:cx="7.0957614"
     inkscape:cy="8"
     inkscape:current-layer="svg3489" />
  <defs
     id="defs3051">
    <style
       type="text/css"
       id="current-color-scheme">
      .ColorScheme-Text {
        color:#bebebe;
      }
      </style>
  </defs>
  <path
     style="color:#bebebe;fill:currentColor;fill-opacity:1;stroke:none"
     class="ColorScheme-Text"
     d="M 8,3 7.3493976,4.1111111 2.7228916,11.840579 2,13 3.3734939,13 12.626506,13 14,13 13.277109,11.840579 8.6506024,4.1111111 8,3 Z m 0,2.9710145 3.277108,5.4830915 -6.5542165,0 L 8,5.9710145 Z"
     id="path3493"
     inkscape:connector-curvature="0" />
</svg>
